icons/linear-ele-container-bag-sell.svg

<svg xmlns="http://www.w3.org/2000/svg" width="32px" height="32px" viewBox="0 0 32 32" version="1.1">
    <title>linear-ele-container-bag-sell</title>
    <g id="linear-ele-container-bag-sell" stroke-width="1" fill-rule="evenodd">
        <path d="M22.8512957,18.0110533 L22.9109568,18.0039103 L23,18 L23.0752385,18.0027879 L23.2007258,18.0202401 L23.2895303,18.0426172 L23.3967825,18.0817934 L23.5003901,18.1339224 L23.5821867,18.1868509 L23.6212195,18.2162447 L23.7071068,18.2928932 L27.7071068,22.2928932 C28.0976311,22.6834175 28.0976311,23.3165825 27.7071068,23.7071068 C27.3165825,24.0976311 26.6834175,24.0976311 26.2928932,23.7071068 L23.9998815,21.415 L24,29 C24,29.5522847 23.5522847,30 23,30 C22.4477153,30 22,29.5522847 22,29 L21.9998815,21.415 L19.7071068,23.7071068 C19.3466228,24.0675907 18.7793918,24.0953203 18.3871006,23.7902954 L18.2928932,23.7071068 C17.9023689,23.3165825 17.9023689,22.6834175 18.2928932,22.2928932 L22.2928932,18.2928932 C22.3309641,18.2548223 22.371341,18.2204628 22.4135743,18.1898147 L22.5218466,18.1214261 L22.628664,18.0712255 L22.734007,18.0358451 L22.8512957,18.0110533 Z M16,2 C19.3137085,2 22,4.6862915 22,8 L21.9998815,9 L26,9 C26.5095492,9 26.9376134,9.38313579 26.9938837,9.88956847 L27.6728815,16 L25.6608815,16 L25.105,11 L21.9998815,11 L22,14 C22,14.5522847 21.5522847,15 21,15 C20.4477153,15 20,14.5522847 20,14 L19.9998815,11 L11.9998815,11 L12,14 C12,14.5522847 11.5522847,15 11,15 C10.4477153,15 10,14.5522847 10,14 L9.99988145,11 L6.894,11 L5.116,27 L15.9998815,27 L15.9998815,29 L4,29 C3.4039887,29 2.94029783,28.4819344 3.00611627,27.8895685 L5.00611627,9.88956847 C5.06238656,9.38313579 5.49045078,9 6,9 L9.99988145,9 L10,8 C10,4.6862915 12.6862915,2 16,2 Z M16,4 C13.790861,4 12,5.790861 12,8 L11.9998815,9 L19.9998815,9 L20,8 C20,5.790861 18.209139,4 16,4 Z" id="&#24418;&#29366;" fill-rule="nonzero" />
    </g>
</svg>

<svg xmlns="http://www.w3.org/2000/svg" viewBox="0 0 32 32"><path fill="currentColor" d="m22.851 18.011.06-.007L23 18l.075.003.126.017.089.023.107.039.103.052.082.053.04.03.085.076 4 4a1 1 0 0 1-1.414 1.414L24 21.415V29a1 1 0 0 1-2 0v-7.585l-2.293 2.292a1 1 0 0 1-1.32.083l-.094-.083a1 1 0 0 1 0-1.414l4-4c.038-.038.078-.073.12-.103l.109-.069.107-.05.105-.035zM16 2a6 6 0 0 1 6 6v1h4a1 1 0 0 1 .994.89l.679 6.11H25.66l-.556-5H22v3a1 1 0 0 1-2 0v-3h-8v3a1 1 0 0 1-2 0v-3H6.894L5.116 27H16v2H4a1 1 0 0 1-.994-1.11l2-18A1 1 0 0 1 6 9h4V8a6 6 0 0 1 6-6m0 2a4 4 0 0 0-4 4v1h8V8a4 4 0 0 0-4-4"/></svg>
